src/lib/packages/icons/src/assets/filled/dna.svg

<svg width="24" height="24" viewBox="0 0 24 24" fill="none" xmlns="http://www.w3.org/2000/svg">
<path d="M7.02299 20.8359C7.10799 21.3779 6.741 21.8919 6.2 21.9819C6.144 21.9909 6.089 21.9961 6.033 21.9961C5.557 21.9961 5.13705 21.658 5.05205 21.174C5.02305 21.007 4.381 17.035 8.601 13.228C9.01 12.859 9.64198 12.89 10.013 13.301C10.383 13.711 10.3511 14.3431 9.94109 14.7141C6.58309 17.7421 7.00399 20.7109 7.02299 20.8359ZM13.854 12.0009C19.444 8.04395 18.964 3.10993 18.938 2.88693C18.876 2.34093 18.394 1.946 17.84 2.009C17.293 2.067 16.897 2.55795 16.95 3.10495C16.968 3.28795 17.297 7.48997 12 10.823C11.061 10.232 10.294 9.61697 9.67705 8.99997H12C12.553 8.99997 13 8.55197 13 7.99997C13 7.44797 12.553 6.99997 12 6.99997H8.11906C7.91906 6.65597 7.74608 6.31797 7.61308 5.99997H15C15.553 5.99997 16 5.55197 16 4.99997C16 4.44797 15.553 3.99997 15 3.99997H7.07903C7.02102 3.48597 7.04705 3.1569 7.05205 3.1069C7.11105 2.5609 6.71807 2.06907 6.17107 2.00607C5.61207 1.93807 5.12599 2.33796 5.06499 2.88596C5.03799 3.12596 4.47609 8.80296 11.4931 12.865C12.6791 13.552 13.6031 14.2649 14.3361 14.9699H12C11.447 14.9699 11 15.4179 11 15.9699C11 16.5219 11.447 16.9699 12 16.9699H15.955C16.17 17.3269 16.35 17.674 16.486 18H8.61211C8.05911 18 7.61211 18.448 7.61211 19C7.61211 19.552 8.05911 20 8.61211 20H16.9891C17.0261 20.482 16.9841 20.7829 16.9771 20.8259C16.8801 21.3699 17.244 21.8891 17.788 21.9851C17.847 21.9951 17.9051 22 17.9631 22C18.4401 22 18.8611 21.659 18.9461 21.174C18.9851 20.956 19.754 16.1189 13.854 12.0009Z" fill="currentColor"/>
</svg>

<svg xmlns="http://www.w3.org/2000/svg" width="24" height="24" fill="none"><path fill="currentColor" d="M7.023 20.836a1.004 1.004 0 0 1-.99 1.16.994.994 0 0 1-.981-.822c-.029-.167-.671-4.139 3.549-7.946a1 1 0 1 1 1.34 1.486c-3.358 3.028-2.937 5.997-2.918 6.122ZM13.854 12c5.59-3.957 5.11-8.891 5.084-9.114a.988.988 0 0 0-1.098-.878 1.003 1.003 0 0 0-.89 1.096c.018.183.347 4.385-4.95 7.718A13.248 13.248 0 0 1 9.677 9H12a1 1 0 1 0 0-2H8.12a8.712 8.712 0 0 1-.507-1H15a1 1 0 1 0 0-2H7.079a4.616 4.616 0 0 1-.027-.893 1 1 0 0 0-.88-1.1.99.99 0 0 0-1.107.879c-.027.24-.589 5.917 6.428 9.979 1.186.687 2.11 1.4 2.843 2.105H12a1 1 0 1 0 0 2h3.955c.215.357.395.704.531 1.03H8.612a1 1 0 1 0 0 2h8.377c.037.482-.005.783-.012.826a1 1 0 1 0 1.97.348c.038-.218.807-5.055-5.093-9.173Z"/></svg>
